src/assets/icons/solana.svg

<?xml version="1.0" encoding="UTF-8"?>
<svg width="24px" height="24px" viewBox="0 0 24 24" version="1.1" xmlns="http://www.w3.org/2000/svg" xmlns:xlink="http://www.w3.org/1999/xlink">
    <title>路径备份 2</title>
    <defs>
        <linearGradient x1="0%" y1="100%" x2="100%" y2="0%" id="linearGradient-1">
            <stop stop-color="#DB20FF" offset="0%"></stop>
            <stop stop-color="#0CF6A7" offset="100%"></stop>
        </linearGradient>
    </defs>
    <g id="扩展程序" stroke="none" stroke-width="1" fill="none" fill-rule="evenodd">
        <g id="选择网络" transform="translate(-40.000000, -277.000000)">
            <g id="编组-2备份-2" transform="translate(20.000000, 257.000000)">
                <g id="编组" transform="translate(20.000000, 20.000000)">
                    <circle id="椭圆形" fill="url(#linearGradient-1)" cx="12" cy="12" r="12"></circle>
                    <path d="M9.33333333,6.5 L16.5,6.5 C16.9602373,6.5 17.3333333,6.87309604 17.3333333,7.33333333 C17.3333333,7.59563109 17.2098382,7.84262135 17,8 L15.2666667,9.3 C15.0935705,9.42982213 14.8830369,9.5 14.6666667,9.5 L7.5,9.5 C7.03976271,9.5 6.66666667,9.12690396 6.66666667,8.66666667 C6.66666667,8.40436891 6.7901618,8.15737865 7,8 L8.73333333,6.7 C8.9064295,6.57017787 9.11696312,6.5 9.33333333,6.5 Z M7.5,10.5 L14.6666667,10.5 C14.8830369,10.5 15.0935705,10.5701779 15.2666667,10.7 L17,12 C17.3681898,12.2761424 17.442809,12.7984768 17.1666667,13.1666667 C17.009288,13.3765049 16.7622978,13.5 16.5,13.5 L9.33333333,13.5 C9.11696312,13.5 8.9064295,13.4298221 8.73333333,13.3 L7,12 C6.63181017,11.7238576 6.55719096,11.2015232 6.83333333,10.8333333 C6.99071198,10.6234951 7.23770225,10.5 7.5,10.5 Z M9.33333333,14.5 L16.5,14.5 C16.9602373,14.5 17.3333333,14.873096 17.3333333,15.3333333 C17.3333333,15.5956311 17.2098382,15.8426213 17,16 L15.2666667,17.3 C15.0935705,17.4298221 14.8830369,17.5 14.6666667,17.5 L7.5,17.5 C7.03976271,17.5 6.66666667,17.126904 6.66666667,16.6666667 C6.66666667,16.4043689 6.7901618,16.1573787 7,16 L8.73333333,14.7 C8.9064295,14.5701779 9.11696312,14.5 9.33333333,14.5 Z" id="形状结合" fill="#FFFFFF"></path>
                </g>
            </g>
        </g>
    </g>
</svg>

<svg width="24" height="24" xmlns="http://www.w3.org/2000/svg"><defs><linearGradient x1="0" y1="100%" x2="100%" y2="0" id="a"><stop stop-color="#db20ff" offset="0"/><stop stop-color="#0cf6a7" offset="100%"/></linearGradient></defs><g fill="none" fill-rule="evenodd"><circle fill="url(#a)" cx="12" cy="12" r="12"/><path d="M9.333 6.5H16.5A.833.833 0 0 1 17 8l-1.733 1.3a1 1 0 0 1-.6.2H7.5A.833.833 0 0 1 7 8l1.733-1.3a1 1 0 0 1 .6-.2zm-1.833 4h7.167a1 1 0 0 1 .6.2L17 12a.833.833 0 0 1-.5 1.5H9.333a1 1 0 0 1-.6-.2L7 12a.833.833 0 0 1 .5-1.5zm1.833 4H16.5A.833.833 0 0 1 17 16l-1.733 1.3a1 1 0 0 1-.6.2H7.5A.833.833 0 0 1 7 16l1.733-1.3a1 1 0 0 1 .6-.2z" fill="#fff"/></g></svg>
